packages/foundations/assets/icons/functional/images/transportation/bus_32.svg

<svg width="32" height="32" viewBox="0 0 32 32" fill="none" xmlns="http://www.w3.org/2000/svg">
<g clip-path="url(#clip0_187_864)">
<path fill-rule="evenodd" clip-rule="evenodd" d="M9.58082 2.00075H22.4196C23.617 2.01787 24.2648 2.15829 24.9371 2.51782C25.6002 2.87248 26.1267 3.39891 26.4813 4.06206C26.8408 4.73433 26.9813 5.38215 26.9984 6.57955L27.0002 23.435C27.0002 24.3988 26.901 24.9123 26.6149 25.4474C26.4551 25.7461 26.2486 26.0086 26.0016 26.2285L26.0002 27.717C26.0002 28.2744 26.0002 30.0125 23.7183 29.9992C23.1963 29.9959 22.7176 29.9959 22.2821 29.9992C20.0183 29.9992 20.0183 28.3583 20.0033 27.916L20 26.9989H12L12.0002 27.717C12.0002 28.2744 12 29.9992 9.71826 29.9992C9.26318 29.9992 8.78448 29.9992 8.28214 29.9992C5.99954 29.9992 6.0002 28.4003 6.0002 27.717C6.0002 27.3548 5.99998 26.8589 5.99954 26.2292C5.75222 26.0091 5.54545 25.7464 5.38552 25.4474C5.1232 24.9569 5.01802 24.4846 5.00232 23.6669L5.0002 6.84476C5.0002 5.47457 5.13387 4.78235 5.51909 4.06206C5.87375 3.39891 6.40018 2.87248 7.06333 2.51782C7.7356 2.15829 8.38342 2.01787 9.58082 2.00075ZM8.00653 26.9989L8.00062 27.9989H10.0002V26.9989H8.00653ZM24.0022 26.9989H22.002V27.9989H24.0022V26.9989ZM25.0002 23.435C25.0004 23.0591 25.0004 21.9431 25.0004 20.0869C21.7823 20.5951 19.2193 20.7489 16.0002 20.7489C13.0003 20.7489 10.0006 20.5282 7.00154 20.0869C7.00584 22.3131 7.00539 23.5064 7.0002 23.6669C6.99242 23.9076 6.99679 24.3668 7.28271 24.6824C7.56863 24.9979 7.9608 24.9979 8.74404 24.9979C9.52727 24.9979 23.2093 24.9979 23.6058 24.9979C24.0022 24.9979 24.4571 24.987 24.7289 24.6824C25.0007 24.3778 25 23.9989 25.0002 23.435ZM10.2502 21.4989C10.941 21.4989 11.5002 22.0589 11.5002 22.7489C11.5002 23.4398 10.941 23.9989 10.2502 23.9989C9.5602 23.9989 9.0002 23.4398 9.0002 22.7489C9.0002 22.0589 9.5602 21.4989 10.2502 21.4989ZM21.7502 21.4989C22.441 21.4989 23.0002 22.0589 23.0002 22.7489C23.0002 23.4398 22.441 23.9989 21.7502 23.9989C21.0602 23.9989 20.5002 23.4398 20.5002 22.7489C20.5002 22.0589 21.0602 21.4989 21.7502 21.4989ZM9.42829 4.00361C8.66889 4.02268 8.34161 4.10224 8.00653 4.28144C7.69191 4.4497 7.45097 4.69064 7.28271 5.00526C7.10351 5.34034 7.02395 5.66762 7.00488 6.42702V18.0645C9.84603 18.5321 13.232 18.7489 16.0002 18.7489C18.9999 18.7489 21.9998 18.5208 25.0004 18.0645L24.9895 6.24591C24.9625 5.61302 24.882 5.31242 24.7177 5.00526C24.5494 4.69064 24.3085 4.4497 23.9939 4.28144C23.6588 4.10224 23.3315 4.02268 22.5721 4.00361H9.42829ZM29 7.01423C29.5128 7.01423 30 7.4548 30 8.01423V12.0142C30 12.5665 29.5523 13.0142 29 13.0142C28.4872 13.0142 28 12.5912 28 12.0142V8.01423C28 7.46195 28.4477 7.01423 29 7.01423ZM3 7.01423C3.51284 7.01423 4 7.42481 4 7.99893V12.0142C4 12.5665 3.55228 13.0142 3 13.0142C2.48716 13.0142 2 12.5899 2 12.0142V8.01423C2 7.46195 2.44772 7.01423 3 7.01423ZM21.0002 5.99893C21.5525 5.99893 22.0002 6.44665 22.0002 6.99893C22.0002 7.51177 21.5886 7.99893 21.0002 7.99893H11.0002C10.4479 7.99893 10.0002 7.55122 10.0002 6.99893C10.0002 6.48609 10.4245 5.99893 11.0002 5.99893H21.0002Z" fill="#1A1C1F"/>
</g>
<defs>
<clipPath id="clip0_187_864">
<rect width="32" height="32" fill="white"/>
</clipPath>
</defs>
</svg>

<svg xmlns="http://www.w3.org/2000/svg" width="32" height="32" fill="none"><g clip-path="url(#a)"><path fill="#1A1C1F" fill-rule="evenodd" d="M9.58 2h12.84c1.197.018 1.845.158 2.517.518.663.354 1.19.88 1.544 1.544.36.672.5 1.32.517 2.518L27 23.435c0 .964-.099 1.477-.385 2.012q-.241.451-.613.782L26 27.717c0 .557 0 2.296-2.282 2.282q-.782-.005-1.436 0c-2.264 0-2.264-1.64-2.279-2.083L20 26.999h-8v.718c0 .557 0 2.282-2.282 2.282H8.282C6 30 6 28.4 6 27.717v-1.488a2.8 2.8 0 0 1-.614-.782c-.263-.49-.368-.962-.384-1.78L5 6.845c0-1.37.134-2.063.52-2.783a3.73 3.73 0 0 1 1.543-1.544c.673-.36 1.32-.5 2.518-.517M8.008 27l-.006 1h2v-1zm15.995 0h-2v1h2zM25 23.435v-3.348c-3.218.508-5.78.662-9 .662q-4.5 0-8.998-.662.006 3.34-.002 3.58c-.008.24-.003.7.283 1.015.286.316.678.316 1.461.316h14.862c.396 0 .851-.011 1.123-.316C25 24.378 25 24 25 23.435m-14.75-1.936a1.25 1.25 0 1 1 0 2.5 1.25 1.25 0 0 1 0-2.5m11.5 0a1.25 1.25 0 1 1 0 2.5 1.25 1.25 0 0 1 0-2.5M9.428 4.004c-.76.019-1.086.098-1.421.277q-.472.253-.724.724c-.18.335-.26.663-.278 1.422v11.638c2.841.467 6.227.684 8.995.684q4.5 0 9-.684l-.01-11.82c-.027-.632-.108-.933-.272-1.24a1.73 1.73 0 0 0-.724-.724c-.335-.179-.663-.258-1.422-.277zM29 7.014c.513 0 1 .44 1 1v4a1 1 0 0 1-1 1c-.513 0-1-.423-1-1v-4a1 1 0 0 1 1-1m-26 0c.513 0 1 .41 1 .985v4.015a1 1 0 0 1-1 1c-.513 0-1-.424-1-1v-4a1 1 0 0 1 1-1M21 6a1 1 0 1 1 0 2H11a1 1 0 0 1-1-1c0-.513.425-1 1-1z" clip-rule="evenodd"/></g><defs><clipPath id="a"><path fill="#fff" d="M0 0h32v32H0z"/></clipPath></defs></svg>
